X: 7
T: Amazing Grace v.2
P: piffero secondo a0147
O: John Newton
%R: air, waltz
F: http://ancients.sudburymuster.org/mus/col/pdf/hymnsF.pdf
Z: 2020 John Chambers <jc:trillian.mit.edu>
M: 3/4
L: 1/8
K: G
F2 |\
F2D2A2 | A2D2G2 | F2D2G2 | F2D2F2 |\
F2D2A2 | A2D2GA | F6 | z4A2 |
F2D2F2 | F2D2F2 | G2D2D2 | F2D2F2 |\
F2D2A2 | A2D2G2 | F6 | z4 :|


